<?xml version="1.0" encoding="UTF-8"?>
<map version="1.10" tiledversion="1.12.2" orientation="orthogonal" renderorder="right-down" width="25" height="19" tilewidth="32" tileheight="32" infinite="0" nextlayerid="3" nextobjectid="1">
 <editorsettings>
  <export target="hotel.json" format="json"/>
 </editorsettings>
 <tileset firstgid="1" source="../tiles/hotel_tileset.tsx"/>
 <layer id="1" name="Ground" width="25" height="19">
  <data encoding="csv">
0,0,0,0,0,0,0,0,0,0,0,0,0,0,0,0,0,0,0,0,0,0,0,0,0,
0,0,0,0,0,0,0,0,0,0,0,0,0,0,0,0,0,0,0,0,0,0,0,0,0,
0,0,0,0,0,0,0,0,0,0,0,0,0,0,0,0,0,0,0,0,0,0,0,0,0,
0,0,0,0,0,0,0,0,0,0,0,0,0,0,0,0,0,0,0,0,0,0,0,0,0,
0,0,0,0,0,0,0,0,69,0,0,0,0,0,0,76,0,0,0,0,0,0,0,0,0,
0,0,0,0,0,0,0,0,85,0,0,0,0,0,0,92,0,0,0,0,0,0,0,0,0,
0,0,0,0,97,98,99,100,101,102,0,0,0,0,107,108,109,110,111,112,0,0,0,0,0,
0,0,0,0,113,114,115,116,117,118,119,120,121,122,123,124,125,126,127,128,0,0,0,0,0,
0,0,0,0,129,130,131,132,133,134,135,136,137,138,139,140,141,142,143,144,0,0,0,0,0,
0,0,0,0,145,146,147,148,149,150,151,152,153,154,155,156,157,158,159,160,0,0,0,0,0,
0,0,0,0,161,162,163,164,165,166,167,168,169,170,171,172,173,174,175,176,0,0,0,0,0,
0,0,0,0,177,178,179,180,181,182,183,184,185,186,187,188,189,190,191,192,0,0,0,0,0,
0,0,0,0,193,194,195,196,197,198,199,200,201,202,203,204,205,206,207,208,0,0,0,0,0,
0,0,0,0,209,210,211,212,213,214,215,216,217,218,219,220,221,222,223,224,0,0,0,0,0,
0,0,0,0,0,0,0,0,0,0,0,0,0,0,0,0,0,0,0,0,0,0,0,0,0,
0,0,0,0,0,0,0,0,0,0,0,0,0,0,0,0,0,0,0,0,0,0,0,0,0,
0,0,0,0,0,0,0,0,0,0,0,0,0,0,0,0,0,0,0,0,0,0,0,0,0,
0,0,0,0,0,0,0,0,0,0,0,0,0,0,0,0,0,0,0,0,0,0,0,0,0,
0,0,0,0,0,0,0,0,0,0,0,0,0,0,0,0,0,0,0,0,0,0,0,0,0
</data>
 </layer>
 <layer id="2" name="Walls" width="25" height="19">
  <data encoding="csv">
0,0,0,0,0,0,0,0,0,0,0,0,0,0,0,0,0,0,0,0,0,0,0,0,0,
0,0,0,0,0,0,0,0,0,0,0,0,0,0,0,0,0,0,0,0,0,0,0,0,0,
0,0,0,0,33,34,35,36,37,38,39,40,41,42,43,44,45,46,47,48,0,0,0,0,0,
0,0,0,0,49,50,51,52,53,54,55,56,57,58,59,60,61,62,63,64,0,0,0,0,0,
0,0,0,0,65,66,67,68,0,70,71,72,73,74,75,0,77,78,79,80,0,0,0,0,0,
0,0,0,0,81,82,83,84,0,86,87,88,89,90,91,0,93,94,95,96,0,0,0,0,0,
0,0,0,0,0,0,0,0,0,0,0,0,0,0,0,0,0,0,0,0,0,0,0,0,0,
0,0,0,0,0,0,0,0,0,0,0,0,0,0,0,0,0,0,0,0,0,0,0,0,0,
0,0,0,0,0,0,0,0,0,0,0,0,0,0,0,0,0,0,0,0,0,0,0,0,0,
0,0,0,0,0,0,0,0,0,0,0,0,0,0,0,0,0,0,0,0,0,0,0,0,0,
0,0,0,0,0,0,0,0,0,0,0,0,0,0,0,0,0,0,0,0,0,0,0,0,0,
0,0,0,0,0,0,0,0,0,0,0,0,0,0,0,0,0,0,0,0,0,0,0,0,0,
0,0,0,0,0,0,0,0,0,0,0,0,0,0,0,0,0,0,0,0,0,0,0,0,0,
0,0,0,0,0,0,0,0,0,0,0,0,0,0,0,0,0,0,0,0,0,0,0,0,0,
0,0,0,0,0,0,0,0,0,0,0,0,0,0,0,0,0,0,0,0,0,0,0,0,0,
0,0,0,0,0,0,0,0,0,0,0,0,0,0,0,0,0,0,0,0,0,0,0,0,0,
0,0,0,0,0,0,0,0,0,0,0,0,0,0,0,0,0,0,0,0,0,0,0,0,0,
0,0,0,0,0,0,0,0,0,0,0,0,0,0,0,0,0,0,0,0,0,0,0,0,0,
0,0,0,0,0,0,0,0,0,0,0,0,0,0,0,0,0,0,0,0,0,0,0,0,0
</data>
 </layer>
</map>
